-- tidal club : week 6 lesson 3 
-- comtrolling MIDI devices
-----------------------------------------------------------------------

let d1 = p 1 . (|< orbit 0)
    d2 = p 2 . (|< orbit 1)
    d3 = p 3 . (|< orbit 2)
    d4 = p 4 . (|< orbit 3)
    d5 = p 5 . (|< orbit 4)
    d6 = p 6 . (|< orbit 5)
    d7 = p 7 . (|< orbit 6)
    d8 = p 8 . (|< orbit 7)

-----------------------------------------------------------------------

d1
  $ n ( every 3 (rev) "a5 ~ c5*2 [f3 e4] ~" ) 
  # s "midi"
  # midichan 0
  # amp 0.85
  # ccn "2"
  # ccv "<40 97>"

-----------------------------------------------------------------------

hush 

-----------------------------------------------------------------------
