
-- © Tidal Cyclist : digitalselves

---------------------------------------------------------------------

let d1 = p 1 . (|< orbit 0)
    d2 = p 2 . (|< orbit 1)
    d3 = p 3 . (|< orbit 2)
    d4 = p 4 . (|< orbit 3)
    d5 = p 5 . (|< orbit 4)
    d6 = p 6 . (|< orbit 5)
    d7 = p 7 . (|< orbit 6)
    d8 = p 8 . (|< orbit 7)

-----------------------------------------------------------------------

setcps(132/240)


-----------------------------------------------------------------------

d1
  $ rarely press
  $ almostAlways (jux rev)
  $ stack [
  s "d:0/4" # n (irand 4),
  gain "1*8?" # s (choose  ["b:0", "s:0"])
  # n (irand 16) # speed "[0.75 0.5]/16"
  ]
  # fshift (range 100 300 $ slow 16 $ sine)
  # gain 1.124
  # speed "[1, 1.02]"
  # krush 3
  # legato 1
  # orbit 0

-----------------------------------------------------------------------

d1
  $ sew (iter 4 "1 0")
  ( n "0 .. 7" # sound "s:6")
  (n "0 .. 7" # sound "s:2")
  # legato 1
  # orbit 0

-----------------------------------------------------------------------

d1
  $ stitch (binary "<127 63>") (sound "s:35") (sound "s:34")
  # cutoff (range 200 4000 $ slow 8 $ saw)
  # resonance (range 0.1 0.2 $ slow 8 $ saw)
  # note (choose [5,9,0, 12, 16,17, 19])
  # room 0.89
  # legato 1
  # orbit 0

-----------------------------------------------------------------------

hush
