-- worksheet_10 : legato
-- legato changes the length of a sound,
-- relative to its duration in the pattern.
-----------------------------------------------------------------------

let d1 = p 1 . (|< orbit 0) 
    d2 = p 2 . (|< orbit 1) 
    d3 = p 3 . (|< orbit 2) 
    d4 = p 4 . (|< orbit 3) 
    d5 = p 5 . (|< orbit 4) 
    d6 = p 6 . (|< orbit 5) 
    d7 = p 7 . (|< orbit 6) 
    d8 = p 8 . (|< orbit 7) 

-----------------------------------------------------------------------
-- a long sound which layers up (unless a really low setcps)

d1 $ s "CL_FL:0"

-----------------------------------------------------------------------
-- we can stop the layering by turning legato on 

d1 $ s "CL_FL:0" # legato 1

-----------------------------------------------------------------------
-- if the event is only there for half the pattern, we'll only hear it
-- for half a pattern :

d1 $ s "CL_FL:16 ~" # legato 1

-----------------------------------------------------------------------
-- with a euclidean pattern :

d1 $ s "CL_FL:16(3,8)" # legato 1

-----------------------------------------------------------------------
-- increase or decrease legato :

d1 $ s "CL_FL:25(3,8)" # legato 3

-----------------------------------------------------------------------

d1 $ s "CL_FL:50(3,8)" # legato 0.25

-----------------------------------------------------------------------
-- for superdirt synths, legato is 'default on', so we can hear the 
-- sound being played faster and shorter
-- again, we can use legato to increase note duration by the given factor :

d1 $ n "c g*8" # s "supermandolin" # legato 4

d1 $ silence

-----------------------------------------------------------------------
