--worksheet_15 : beat rotation
-- is a way to completely change the feel of a pattern 
-- while hardly changing it at all
-----------------------------------------------------------------------

let d1 = p 1 . (|< orbit 0) 
    d2 = p 2 . (|< orbit 1) 
    d3 = p 3 . (|< orbit 2) 
    d4 = p 4 . (|< orbit 3) 
    d5 = p 5 . (|< orbit 4) 
    d6 = p 6 . (|< orbit 5) 
    d7 = p 7 . (|< orbit 6) 
    d8 = p 8 . (|< orbit 7) 

-----------------------------------------------------------------------
-- it works well with breaks :
 
d1 $ loopAt 2 $ chop 8 $ s "H_DR:0" # amp 1.0

-----------------------------------------------------------------------
-- lets shift that by a quarter :

d1 $ 0.25 <~ (loopAt 1 $ chop 8 $ s "H_DR:0") # amp 0.9

-----------------------------------------------------------------------
-- and do that every fourth repetition only :

d1 $ every 4 (0.25 <~) $ loopAt 4 $ chop 8 $ s "H_DR:1" # amp 1.0

-----------------------------------------------------------------------
-- or for some cycle at random :

d1 $ someCycles (0.25 <~) $ loopAt 5 $ chop 8 $ s "H_DR:1" # amp 1.0

-----------------------------------------------------------------------
-- we can pattern the shift amount :

d1 $ "0.25 0 0.125" <~ (loopAt 1 $ chop 8 $ s "H_DR:2") # amp 1.0

-----------------------------------------------------------------------
-- a different shift value per cycle :

d1 $ "<0.25 0 0.125>" <~ (loopAt "<2 1>" $ chop 8 $ s "H_DR:5") # amp 1.0

d1 $ silence

-----------------------------------------------------------------------
