-- worksheet_07 : euclidian patterns
-- great building blocks for rhythm
-----------------------------------------------------------------------

let d1 = p 1 . (|< orbit 0) 
    d2 = p 2 . (|< orbit 1) 
    d3 = p 3 . (|< orbit 2) 
    d4 = p 4 . (|< orbit 3) 
    d5 = p 5 . (|< orbit 4) 
    d6 = p 6 . (|< orbit 5) 
    d7 = p 7 . (|< orbit 6) 
    d8 = p 8 . (|< orbit 7) 

-----------------------------------------------------------------------
-- play 3 kick drums over 8 steps

d1 $ s "TR_KIC:17(3,8)"

-----------------------------------------------------------------------
-- the 'deconstruct' function lets us see what is happening
-- deconstruct those eight steps :
-- it shows how the 'euclidean algorithm' tries to arrange the kicks
-- evenly, but can't do it perfectly, so we get a lilting rhythm

deconstruct 8 $ "TR_KIC:18(3,8)"

-----------------------------------------------------------------------
-- we can also shift the pattern a number of steps :
-- the same pattern offset by two steps

deconstruct 8 $ "TR_KIC:19(3,8,2)"

d1 $ s "TR_KIC:19(3,8,2)"

-----------------------------------------------------------------------
-- create variety by patterning the euclidean pattern :

d1 $ s "TR_KIC:20(<3 5>,8,<0 2 4>)"

d1 $ silence

-----------------------------------------------------------------------
